X:9
T:Om MaNi Padme Hum Shanti / 𑖌𑖯𑖸 𑖦𑖜𑖰 𑖢𑖟𑖿𑖦𑖸 𑖮𑖳𑖽 𑖫𑖯𑖡𑖿 𑖝𑖰 𑖝𑖰
M:4/4
L:1/8
Q:1/4=138
K:Bm
|: B,2 FB dFBd | G,2 DG BDGB | A,2 EA cEAc | F,2 CF ACFA :|
| b2 f2 d2 B2 | g2 d2 B2 G2 | a2 e2 c2 A2 | f2 c2 A2 F2 |
